X:14226
T:Return to Camden Town
T:Return from Camden Town
R:reel
D:Skylark: Raining Bicycles
Z:id:hn-reel-255
M:C|
K:Ador
E2DG EA,~A,2|EDCD EGAB|cBcd edeg|aged cABG|
E2DG EA,~A,2|EDCD EGAB|cBcd edeg|1 aged cA~A2:|2 aged cAAB||
|:c2ec gcec|c2ec dcAB|cBcd edeg|aged cAAB|
c2ec gcec|c2ec dcAB|cBcd edeg|1 aged cAAB:|2 aged cA~A2||
